public/assets/logos/node.svg

<svg width="79" height="90" viewBox="0 0 79 90" fill="none" xmlns="http://www.w3.org/2000/svg">
    <path d="M39.4436 84.9999C38.3867 85.0005 37.3485 84.7192 36.4332 84.1847L26.8494 78.4471C25.4191 77.6368 26.1177 77.3497 26.5894 77.1833C28.1103 76.7038 29.566 76.0337 30.9226 75.1888C31.0363 75.136 31.1614 75.1133 31.2861 75.123C31.4108 75.1327 31.531 75.1743 31.6353 75.2441L38.9978 79.6673C39.1347 79.7411 39.2874 79.7796 39.4424 79.7796C39.5974 79.7796 39.7502 79.7411 39.887 79.6673L68.5912 62.9027C68.7251 62.8212 68.8359 62.7059 68.9128 62.5682C68.9896 62.4304 69.03 62.2748 69.0298 62.1166V28.5971C69.0296 28.4361 68.9885 28.2779 68.9105 28.1376C68.8324 27.9974 68.72 27.8799 68.584 27.7964L39.8917 11.0463C39.7568 10.9692 39.6045 10.9287 39.4495 10.9287C39.2946 10.9287 39.1423 10.9692 39.0074 11.0463L10.3223 27.8013C10.185 27.8829 10.0709 27.9991 9.99116 28.1385C9.91139 28.278 9.86866 28.436 9.86713 28.5971V62.1166C9.86745 62.2752 9.90959 62.4306 9.98918 62.5672C10.0688 62.7037 10.1829 62.8162 10.3199 62.8931L18.183 67.4902C22.4493 69.6488 25.0616 67.1066 25.0616 64.5525V31.4575C25.0615 31.3469 25.083 31.2375 25.125 31.1354C25.1669 31.0334 25.2286 30.9408 25.3061 30.8629C25.3837 30.7851 25.4758 30.7236 25.5769 30.6821C25.6782 30.6405 25.7866 30.6196 25.8958 30.6207H29.5356C29.6445 30.6202 29.7525 30.6416 29.8533 30.6834C29.9541 30.7252 30.0457 30.7868 30.123 30.8645C30.2003 30.9422 30.2617 31.0346 30.3035 31.1363C30.3455 31.2381 30.3672 31.3472 30.3674 31.4575V64.5525C30.3674 70.3143 27.2665 73.6185 21.8679 73.6185C20.209 73.6185 18.9028 73.6185 15.2562 71.8001L7.72908 67.4154C6.81339 66.8754 6.05357 66.1021 5.52538 65.1723C4.99718 64.2426 4.71906 63.1891 4.71875 62.1166V28.5971C4.71852 27.5252 4.99645 26.4721 5.52475 25.5431C6.05304 24.614 6.81318 23.8416 7.7291 23.3032L36.4332 6.51938C37.3582 6.00784 38.3954 5.73975 39.4495 5.73975C40.5036 5.73975 41.5408 6.00784 42.4659 6.51938L71.1678 23.3032C72.0839 23.8419 72.8443 24.6141 73.3733 25.5431C73.9024 26.4719 74.1814 27.5249 74.1828 28.5971V62.1166C74.1806 63.1892 73.9013 64.2426 73.3723 65.1722C72.8434 66.1016 72.0834 66.875 71.1678 67.4154L42.4659 84.1847C41.547 84.7211 40.5044 85.0023 39.4436 84.9999Z" fill="#689F63"/>
    <path d="M48.3101 61.9067C35.7494 61.9067 33.1179 56.0726 33.1179 51.1791C33.1177 51.0689 33.1389 50.9598 33.1805 50.8579C33.2222 50.7561 33.2833 50.6636 33.3604 50.5858C33.4375 50.508 33.5291 50.4463 33.6299 50.4046C33.7306 50.3627 33.8386 50.3415 33.9475 50.3421H37.6585C37.8574 50.3413 38.05 50.4127 38.2013 50.5432C38.3526 50.6738 38.4526 50.8548 38.4833 51.0536C39.0435 54.8763 40.7141 56.8059 48.3102 56.8059C54.3572 56.8059 56.9314 55.4216 56.9314 52.1751C56.9314 50.3036 56.2019 48.9144 46.8041 47.9833C38.9504 47.1972 34.0927 45.4412 34.0927 39.0837C34.0927 33.2231 38.9741 29.7283 47.1592 29.7283C56.3544 29.7283 60.9046 32.9576 61.4813 39.8868C61.4915 40.003 61.4777 40.1199 61.4407 40.2303C61.4037 40.3408 61.3445 40.4421 61.2668 40.5281C61.1889 40.6141 61.0944 40.6827 60.9889 40.7297C60.8835 40.7767 60.7696 40.8009 60.6544 40.8009H56.9289C56.7409 40.8006 56.5587 40.7354 56.4122 40.6161C56.2658 40.4969 56.1638 40.3307 56.1232 40.1449C55.2295 36.1221 53.0559 34.8365 47.1592 34.8365C40.5569 34.8365 39.7892 37.164 39.7892 38.9077C39.7892 41.0204 40.695 41.6354 49.6094 42.8293C58.4304 44.0088 62.6206 45.68 62.6206 51.9534C62.6206 58.282 57.4056 61.9067 48.3101 61.9067Z" fill="#689F63"/>
</svg>

<svg width="79" height="90" viewBox="0 0 79 90" fill="none" xmlns="http://www.w3.org/2000/svg"><path d="M39.444 85a5.962 5.962 0 0 1-3.01-.815l-9.585-5.738c-1.43-.81-.731-1.097-.26-1.264 1.521-.48 2.977-1.15 4.334-1.994a.729.729 0 0 1 .712.055l7.363 4.423a.937.937 0 0 0 .889 0l28.704-16.764a.912.912 0 0 0 .439-.786v-33.52a.948.948 0 0 0-.446-.8l-28.692-16.75a.89.89 0 0 0-.885 0L10.322 27.8a.928.928 0 0 0-.455.796v33.52a.898.898 0 0 0 .453.776l7.863 4.597c4.266 2.159 6.879-.383 6.879-2.938V31.457a.844.844 0 0 1 .244-.594.825.825 0 0 1 .59-.242h3.64a.82.82 0 0 1 .587.244.836.836 0 0 1 .244.593v33.094c0 5.762-3.1 9.066-8.5 9.066-1.658 0-2.964 0-6.61-1.818l-7.528-4.385a6.1 6.1 0 0 1-2.204-2.243 6.19 6.19 0 0 1-.806-3.055v-33.52c0-1.072.277-2.125.806-3.054a6.085 6.085 0 0 1 2.204-2.24L36.433 6.52a6.231 6.231 0 0 1 6.033 0l28.702 16.784a6.095 6.095 0 0 1 2.205 2.24c.53.929.808 1.982.81 3.054v33.52a6.205 6.205 0 0 1-.81 3.055 6.115 6.115 0 0 1-2.205 2.243l-28.702 16.77a5.967 5.967 0 0 1-3.022.815Z" fill="#689F63"/><path d="M48.31 61.907c-12.56 0-15.192-5.834-15.192-10.728a.846.846 0 0 1 .242-.593.822.822 0 0 1 .587-.244h3.711c.2 0 .392.07.543.201.152.13.252.312.282.51.56 3.823 2.231 5.753 9.827 5.753 6.047 0 8.621-1.384 8.621-4.63 0-1.872-.73-3.262-10.127-4.193-7.854-.786-12.711-2.542-12.711-8.9 0-5.86 4.881-9.355 13.066-9.355 9.195 0 13.746 3.23 14.322 10.159a.848.848 0 0 1-.492.843.821.821 0 0 1-.335.07H56.93a.82.82 0 0 1-.517-.184.838.838 0 0 1-.289-.471c-.893-4.023-3.067-5.309-8.964-5.309-6.602 0-7.37 2.328-7.37 4.072 0 2.112.906 2.727 9.82 3.921 8.821 1.18 13.012 2.851 13.012 9.124 0 6.329-5.215 9.954-14.31 9.954Z" fill="#689F63"/></svg>
